X: 2
T: The Tempest
R: reel
M: 4/4
L: 1/8
K: Cmaj
(3ABc|:d2 cA GE ~E2|DEcE dEcE|AdcA ~G2 cG|EDCD ED (3ABc|d2 cA GE ~E2|DEcE dEcE|DEFA GEcE|EDCD ED ~D2:||:d2 ed cAGc|AdcA GE ~E2|d2 ed cdef|edcA d2 ag|efdf ec ~c2|cAG cAE~E2|DEFA GEcE|EDCD ED (3ABc:|


Tune 1004	Setting 21801

